public/western-piece-design/elephant.svg

<?xml version="1.0" encoding="UTF-8" standalone="no"?>
<svg
   version="1.1"
   width="32"
   height="32"
   id="svg13"
   sodipodi:docname="elephant.svg"
   inkscape:version="1.3 (0e150ed6c4, 2023-07-21)"
   xmlns:inkscape="http://www.inkscape.org/namespaces/inkscape"
   xmlns:sodipodi="http://sodipodi.sourceforge.net/DTD/sodipodi-0.dtd"
   xmlns="http://www.w3.org/2000/svg"
   xmlns:svg="http://www.w3.org/2000/svg">
  <sodipodi:namedview
     id="namedview13"
     pagecolor="#ffffff"
     bordercolor="#000000"
     borderopacity="0.25"
     inkscape:showpageshadow="2"
     inkscape:pageopacity="0.0"
     inkscape:pagecheckerboard="0"
     inkscape:deskcolor="#d1d1d1"
     inkscape:zoom="5.6568543"
     inkscape:cx="16.263456"
     inkscape:cy="28.726213"
     inkscape:window-width="1920"
     inkscape:window-height="974"
     inkscape:window-x="-11"
     inkscape:window-y="-11"
     inkscape:window-maximized="1"
     inkscape:current-layer="svg13" />
  <defs
     id="defs1">
    <style
       id="style1">&#10;      g {&#10;        stroke-width: 1.3;&#10;        stroke: black;&#10;        fill: none;&#10;      }&#10;    </style>
  </defs>
  <!-- cannon -->
  <!-- guard -->
  <!-- elephant -->
  <!-- knight -->
  <!-- pawn -->
  <!-- rook -->
  <!-- general -->
  <g
     transform="matrix(0,1.0811582,-1.0943206,0,64.229352,-43.336992)"
     id="g7"
     style="fill:#000000;stroke:none;stroke-width:1.19516;stroke-dasharray:none;fill-opacity:1">
    <path
       style="color:#000000;fill:#000000;stroke:none;stroke-width:1.19516;stroke-dasharray:none;fill-opacity:1"
       d="m 61.291016,41.287109 c -1.047855,0.203602 -2.006466,0.633789 -2.742188,1.28711 l 0.863281,0.972656 c 0.932309,-0.82789 2.68284,-1.167373 4.359375,-0.931641 L 63.632812,56.375 c -0.0023,0.232153 -0.04324,0.271799 -0.101562,0.322266 -0.05832,0.05047 -0.205849,0.120053 -0.46875,0.140625 -0.525801,0.04114 -1.409789,-0.132149 -2.296875,-0.416016 -1.774172,-0.567733 -3.591797,-1.509766 -3.591797,-1.509766 l -0.601562,1.152344 c 0,0 1.873015,0.98007 3.796875,1.595703 0.961929,0.307817 1.928467,0.540457 2.794921,0.472656 0.433228,-0.0339 0.867788,-0.147451 1.21875,-0.451171 0.350963,-0.303721 0.545764,-0.78818 0.550782,-1.292969 l 0.148437,-14.917969 -0.511719,-0.115234 c -1.094727,-0.24845 -2.231441,-0.271962 -3.279296,-0.06836 z"
       id="path22" />
    <path
       style="color:#000000;fill:#000000;stroke:none;stroke-width:1.19516;stroke-dasharray:none;fill-opacity:1"
       d="m 50.671875,30.703125 -0.08008,3.417969 4.753906,1.1875 -0.150391,0.943359 c -2.688658,0.534476 -5.857841,1.222216 -8.066406,2.828125 -1.163097,0.84572 -2.061262,1.984998 -2.335937,3.453125 -0.262136,1.401107 0.0848,3.057366 1.058593,4.970703 -0.04432,0.167371 -0.205716,0.751277 -0.339843,1.654297 -0.151863,1.022426 -0.304119,2.190803 0.160156,3.136719 0.191413,0.389986 0.46254,0.581125 0.818359,0.849609 0.35582,0.268485 0.800856,0.558281 1.3125,0.867188 1.02329,0.617814 2.307622,1.307721 3.570313,1.957031 2.525382,1.29862 4.964844,2.433594 4.964844,2.433594 l 0.628906,0.291015 0.251953,-0.644531 c 0,0 0.614847,-1.573577 1.128906,-3.412109 0.25703,-0.919266 0.490503,-1.906319 0.609375,-2.820313 0.118872,-0.913993 0.154361,-1.74582 -0.134765,-2.460937 v -0.002 c -0.505422,-1.244182 -1.613052,-1.982032 -2.544922,-2.435547 -0.177201,-0.08624 -0.169375,-0.05403 -0.333985,-0.121094 0.391145,-0.209772 0.473935,-0.222313 0.958985,-0.529297 0.56771,-0.3593 1.144799,-0.766235 1.615234,-1.210937 0.470436,-0.444703 0.890613,-0.918641 0.9375,-1.591797 0.09773,-1.403262 -0.206311,-2.455326 -0.294922,-2.802735 1.620067,-1.262285 2.585291,-2.421772 2.822266,-3.597656 0.253815,-1.259446 -0.398295,-2.395177 -1.419922,-3.195312 -2.043254,-1.600271 -5.659184,-2.461479 -9.152344,-3.042969 z m 1.263672,1.574219 c 3.169772,0.579859 6.341103,1.452133 7.826172,2.615234 0.802216,0.628293 1.094826,1.181855 0.947265,1.914063 -0.147561,0.732207 -0.887127,1.797869 -2.607422,3.074218 l -0.357421,0.263672 0.117187,0.427735 c 0,0 0.387941,1.495177 0.296875,2.802734 -0.0041,0.05832 -0.164309,0.387612 -0.533203,0.736328 -0.368894,0.348716 -0.892048,0.725742 -1.417969,1.058594 -1.051842,0.665704 -2.103515,1.162109 -2.103515,1.162109 l 0.277343,-0.0625 -0.138672,1.285156 c 0,0 0.683669,0.150124 1.466797,0.53125 0.783129,0.381127 1.593626,0.983426 1.908203,1.757813 0.118243,0.293759 0.156696,0.990324 0.05078,1.804687 -0.106029,0.815244 -0.325593,1.756448 -0.572266,2.638672 -0.392283,1.403003 -0.694546,2.161366 -0.865234,2.615235 -0.52383,-0.24557 -2.100029,-0.97724 -4.263672,-2.089844 -1.248197,-0.641856 -2.514715,-1.323911 -3.492188,-1.914063 -0.488736,-0.295075 -0.906791,-0.567415 -1.203125,-0.791015 -0.296334,-0.2236 -0.466258,-0.455297 -0.43164,-0.384766 -0.162905,-0.331902 -0.181831,-1.438144 -0.04297,-2.373047 0.138862,-0.934902 0.353516,-1.722656 0.353516,-1.722656 l 0.06836,-0.25 -0.123047,-0.228516 c -0.997721,-1.863979 -1.229946,-3.281661 -1.025391,-4.375 0.204556,-1.093338 0.843188,-1.930662 1.822266,-2.642578 1.958157,-1.423831 5.248599,-2.166857 8.001953,-2.708984 l 0.445313,-0.08789 0.476562,-2.998047 -4.90039,-1.222656 z"
       id="path21" />
    <path
       style="color:#000000;fill:#000000;stroke:none;stroke-width:1.19516;stroke-dasharray:none;fill-opacity:1"
       d="M 56.214844,29.435547 54.425781,43.175781 59.0625,42.900391 59.15625,42.287109 59.14453,42.197269 57.503906,29.4375 Z m 0.640625,5.148437 0.912109,7.089844 -1.849609,0.111328 z"
       id="path20" />
    <path
       style="color:#000000;fill:#000000;stroke:none;stroke-width:1.19516;stroke-dasharray:none;fill-opacity:1"
       d="m 51,39.75 c -0.682656,0 -1.25,0.567344 -1.25,1.25 0,0.682656 0.567344,1.25 1.25,1.25 0.682656,0 1.25,-0.567344 1.25,-1.25 0,-0.682656 -0.567344,-1.25 -1.25,-1.25 z m 0,1.199219 c 0.01991,0 0.05078,0.03087 0.05078,0.05078 0,0.01991 -0.03087,0.05078 -0.05078,0.05078 -0.01991,0 -0.05078,-0.03087 -0.05078,-0.05078 0,-0.01991 0.03087,-0.05078 0.05078,-0.05078 z"
       id="path19" />
  </g>
</svg>

<?xml version="1.0" encoding="UTF-8" standalone="no"?>
<svg
   version="1.1"
   width="32"
   height="32"
   id="svg13"
   sodipodi:docname="elephant.svg"
   inkscape:version="1.3 (0e150ed6c4, 2023-07-21)"
   xmlns:inkscape="http://www.inkscape.org/namespaces/inkscape"
   xmlns:sodipodi="http://sodipodi.sourceforge.net/DTD/sodipodi-0.dtd"
   xmlns="http://www.w3.org/2000/svg"
   xmlns:svg="http://www.w3.org/2000/svg">
  <sodipodi:namedview
     id="namedview13"
     pagecolor="#ffffff"
     bordercolor="#000000"
     borderopacity="0.25"
     inkscape:showpageshadow="2"
     inkscape:pageopacity="0.0"
     inkscape:pagecheckerboard="0"
     inkscape:deskcolor="#d1d1d1"
     inkscape:zoom="5.6568543"
     inkscape:cx="16.440233"
     inkscape:cy="28.726213"
     inkscape:window-width="1920"
     inkscape:window-height="974"
     inkscape:window-x="-11"
     inkscape:window-y="-11"
     inkscape:window-maximized="1"
     inkscape:current-layer="svg13" />
  <defs
     id="defs1">
    <style
       id="style1">&#10;      g {&#10;        stroke-width: 1.3;&#10;        stroke: black;&#10;        fill: none;&#10;      }&#10;    </style>
  </defs>
  <!-- cannon -->
  <!-- guard -->
  <!-- elephant -->
  <!-- knight -->
  <!-- pawn -->
  <!-- rook -->
  <!-- general -->
  <g
     transform="matrix(0,1.0811582,-1.0943206,0,64.229352,-43.336992)"
     id="g7"
     style="fill:#000000;stroke:none;stroke-width:1.19516;stroke-dasharray:none;fill-opacity:1">
    <path
       id="path22"
       style="color:#000000;fill:#000000;stroke:none;stroke-width:1.19516;stroke-dasharray:none;fill-opacity:1"
       d="M 44.710335 43.631574 C 44.742968 44.778175 45.121706 46.069552 45.85205 47.504553 C 45.80773 47.671924 45.646553 48.256028 45.512426 49.159047 C 45.360563 50.181472 45.207125 51.348996 45.671399 52.294911 C 45.862812 52.684897 46.13393 52.875985 46.489749 53.144468 C 46.845569 53.412953 47.291439 53.702966 47.803083 54.011873 C 48.826372 54.629686 50.11006 55.318686 51.37275 55.967995 C 53.89813 57.266614 56.337045 58.402439 56.337045 58.402439 L 56.967517 58.693359 L 57.218622 58.049052 C 57.218622 58.049052 57.443864 57.458395 57.728059 56.621226 C 58.43959 56.945293 59.394952 57.348218 60.369179 57.65997 C 61.331107 57.967786 62.297399 58.200738 63.163852 58.132937 C 63.59708 58.099037 64.032286 57.985107 64.383248 57.681387 C 64.734211 57.377666 64.929216 56.893993 64.934234 56.389204 L 65.082368 41.470201 L 64.571125 41.355975 C 63.476399 41.107526 62.338354 41.082767 61.2905 41.286369 C 60.615928 41.417441 59.980285 41.644842 59.415341 41.962802 C 59.340141 41.330142 59.213425 40.868713 59.160622 40.661695 C 60.780688 39.399411 61.745419 38.239455 61.982394 37.063572 C 62.236208 35.804127 61.584101 34.668944 60.562476 33.86881 C 59.84268 33.305068 58.924852 32.836016 57.888838 32.435629 L 57.504051 29.437193 L 56.214202 29.435408 L 55.907095 31.791322 C 54.476343 31.392607 52.935719 31.079619 51.410687 30.825755 L 50.671824 30.702605 L 50.592337 34.120464 L 55.34527 35.30913 L 55.195329 36.251495 C 52.506674 36.785971 49.337817 37.474469 47.129254 39.080377 C 45.966158 39.926096 45.068109 41.065807 44.793434 42.533932 C 44.7279 42.884209 44.699457 43.249373 44.710335 43.631574 z M 46.003797 43.656561 C 45.995202 43.340778 46.019499 43.046428 46.070638 42.773093 C 46.275194 41.679756 46.914332 40.843529 47.893409 40.131614 C 49.679805 38.832675 52.570909 38.10233 55.155586 37.572235 L 54.425755 43.176454 L 58.170654 42.953356 C 58.170742 43.094326 58.167672 43.23581 58.158008 43.374565 C 58.153908 43.432885 57.993981 43.762965 57.625087 44.111681 C 57.256194 44.460396 56.732896 44.837205 56.206976 45.170057 C 55.155135 45.83576 54.104196 46.331951 54.104196 46.331951 L 54.380592 46.269483 L 54.241491 47.554527 C 54.241491 47.554527 54.925251 47.705267 55.708378 48.086393 C 56.491507 48.467519 57.303285 49.070018 57.617861 49.844404 C 57.736104 50.138163 57.77436 50.834458 57.668444 51.64882 C 57.562415 52.464063 57.342452 53.404506 57.095779 54.286729 C 56.703497 55.689731 56.401148 56.449353 56.23046 56.903222 C 55.706631 56.657652 54.130733 55.925843 51.967093 54.813241 C 50.718897 54.171385 49.452577 53.48832 48.475105 52.898168 C 47.98637 52.603093 47.568302 52.331109 47.271969 52.107509 C 47.012677 51.911859 46.849984 51.709658 46.836599 51.709503 C 46.678032 51.366057 46.659339 50.275873 46.796856 49.350019 C 46.935718 48.415118 47.150932 47.627703 47.150932 47.627703 L 47.21958 47.377834 L 47.09493 47.147597 C 46.34664 45.749614 46.029582 44.603909 46.003797 43.656561 z M 49.750503 41.000803 C 49.750503 41.683459 50.317953 42.250152 51.000609 42.250152 C 51.683264 42.250152 52.250715 41.683459 52.250715 41.000803 C 52.250715 40.318148 51.683264 39.74967 51.000609 39.74967 C 50.317953 39.74967 49.750503 40.318148 49.750503 41.000803 z M 50.950026 41.007943 C 50.949143 41.005193 50.950026 41.003292 50.950026 41.000803 C 50.950026 40.980894 50.980699 40.949045 51.000609 40.949045 C 51.020519 40.949045 51.051191 40.980894 51.051191 41.000803 C 51.051191 41.020713 51.020519 41.050777 51.000609 41.050777 C 50.983188 41.050777 50.956207 41.027189 50.950026 41.007943 z M 51.91651 33.113847 L 51.936382 32.276783 C 53.243203 32.515845 54.542787 32.807618 55.731863 33.145973 L 55.61444 34.03658 L 51.91651 33.113847 z M 55.917934 41.784323 L 56.855513 34.584508 L 57.767802 41.673667 L 55.917934 41.784323 z M 55.943225 46.795994 C 56.33437 46.586223 56.417433 46.574682 56.902483 46.267699 C 57.470192 45.908399 58.04707 45.500532 58.517504 45.055831 C 58.974979 44.62338 59.3825 44.163194 59.447858 43.519133 C 60.388326 42.712974 62.114616 42.383156 63.77084 42.616032 L 63.633545 56.374926 C 63.631245 56.607079 63.588896 56.647505 63.530574 56.697972 C 63.472254 56.748442 63.325589 56.816613 63.062688 56.837185 C 62.536887 56.878325 61.65189 56.705197 60.764805 56.42133 C 59.781662 56.106726 58.820442 55.690582 58.127298 55.370093 C 58.201335 55.126425 58.275644 54.894227 58.347692 54.636547 C 58.604722 53.717282 58.837615 52.730583 58.956487 51.81659 C 59.075358 50.902597 59.11193 50.07049 58.822805 49.355374 L 58.822805 49.353589 C 58.317383 48.109408 57.209299 47.370874 56.27743 46.91736 C 56.100229 46.83112 56.107835 46.863058 55.943225 46.795994 z M 58.085748 33.954479 C 58.757529 34.242452 59.332188 34.556499 59.762191 34.893275 C 60.564406 35.521568 60.856364 36.074356 60.708803 36.806563 C 60.582411 37.433727 60.016973 38.307008 58.777642 39.346309 L 58.085748 33.954479 z " />
  </g>
</svg>
